svg/design/anticlockwise_line.svg

<?xml version="1.0" encoding="UTF-8"?>
<svg width="24px" height="24px" viewBox="0 0 24 24" version="1.1" xmlns="http://www.w3.org/2000/svg" xmlns:xlink="http://www.w3.org/1999/xlink">
    <title>anticlockwise_line</title>
    <g id="页面-1" stroke="none" stroke-width="1" fill="none" fill-rule="evenodd">
        <g id="Design" transform="translate(-240.000000, -96.000000)" fill-rule="nonzero">
            <g id="anticlockwise_line" transform="translate(240.000000, 96.000000)">
                 <path d="M24,0 L24,24 L0,24 L0,0 L24,0 Z M12.5934901,23.257841 L12.5819402,23.2595131 L12.5108777,23.2950439 L12.4918791,23.2987469 L12.4918791,23.2987469 L12.4767152,23.2950439 L12.4056548,23.2595131 C12.3958229,23.2563662 12.3870493,23.2590235 12.3821421,23.2649074 L12.3780323,23.275831 L12.360941,23.7031097 L12.3658947,23.7234994 L12.3769048,23.7357139 L12.4804777,23.8096931 L12.4953491,23.8136134 L12.4953491,23.8136134 L12.5071152,23.8096931 L12.6106902,23.7357139 L12.6232938,23.7196733 L12.6232938,23.7196733 L12.6266527,23.7031097 L12.609561,23.275831 C12.6075724,23.2657013 12.6010112,23.2592993 12.5934901,23.257841 L12.5934901,23.257841 Z M12.8583906,23.1452862 L12.8445485,23.1473072 L12.6598443,23.2396597 L12.6498822,23.2499052 L12.6498822,23.2499052 L12.6471943,23.2611114 L12.6650943,23.6906389 L12.6699349,23.7034178 L12.6699349,23.7034178 L12.678386,23.7104931 L12.8793402,23.8032389 C12.8914285,23.8068999 12.9022333,23.8029875 12.9078286,23.7952264 L12.9118235,23.7811639 L12.8776777,23.1665331 C12.8752882,23.1545897 12.8674102,23.1470016 12.8583906,23.1452862 L12.8583906,23.1452862 Z M12.1430473,23.1473072 C12.1332178,23.1423925 12.1221763,23.1452606 12.1156365,23.1525954 L12.1099173,23.1665331 L12.0757714,23.7811639 C12.0751323,23.7926639 12.0828099,23.8018602 12.0926481,23.8045676 L12.108256,23.8032389 L12.3092106,23.7104931 L12.3186497,23.7024347 L12.3186497,23.7024347 L12.3225043,23.6906389 L12.340401,23.2611114 L12.337245,23.2485176 L12.337245,23.2485176 L12.3277531,23.2396597 L12.1430473,23.1473072 Z" id="MingCute" fill-rule="nonzero"></path>
                <path d="M14,8 C15.0543909,8 15.9181678,8.81587733 15.9945144,9.85073759 L16,10 L16,19 C16,20.0543909 15.18415,20.9181678 14.1492661,20.9945144 L14,21 L4,21 C2.94563773,21 2.08183483,20.18415 2.00548573,19.1492661 L2,19 L2,10 C2,8.94563773 2.81587733,8.08183483 3.85073759,8.00548573 L4,8 L14,8 Z M14,10 L4,10 L4,19 L14,19 L14,10 Z M18,3 C18.5523,3 19,3.44772 19,4 C19,4.55228 18.5523,5 18,5 L17.0047,5 C17.2255,5.13366 17.4472,5.2754 17.6683,5.42559 C19.3616,6.57616 21.068,8.26093 21.9398,10.6583 C22.1285,11.1773 21.8608,11.7511 21.3417,11.9398 C20.8227,12.1285 20.2489,11.8608 20.0602,11.3417 C19.3772,9.46343 18.018,8.08121 16.5443,7.07985 C15.07,6.07812 13.5355,5.49561 12.6088,5.20466 C11.8737,4.97391 11.8077,4.25682 11.8481,3.97178 C11.8881,3.68832 12.1561,3 12.9439,3 L18,3 Z" id="形状" fill="#09244B"></path>
            </g>
        </g>
    </g>
</svg>

<svg xmlns="http://www.w3.org/2000/svg" width="24" height="24"><g fill="none" fill-rule="nonzero"><path d="M24 0v24H0V0h24ZM12.593 23.258l-.011.002-.071.035-.02.004-.014-.004-.071-.035c-.01-.004-.019-.001-.024.005l-.004.01-.017.428.005.02.01.013.104.074.015.004.012-.004.104-.074.012-.016.004-.017-.017-.427c-.002-.01-.009-.017-.017-.018Zm.265-.113-.013.002-.185.093-.01.01-.003.011.018.43.005.012.008.007.201.093c.012.004.023 0 .029-.008l.004-.014-.034-.614c-.003-.012-.01-.02-.02-.022Zm-.715.002a.023.023 0 0 0-.027.006l-.006.014-.034.614c0 .012.007.02.017.024l.015-.002.201-.093.01-.008.004-.011.017-.43-.003-.012-.01-.01-.184-.092Z"/><path fill="#09244B" d="M14 8a2 2 0 0 1 1.995 1.85L16 10v9a2 2 0 0 1-1.85 1.995L14 21H4a2 2 0 0 1-1.995-1.85L2 19v-9a2 2 0 0 1 1.85-1.995L4 8h10Zm0 2H4v9h10v-9Zm4-7a1 1 0 1 1 0 2h-.995c.22.134.442.275.663.426 1.694 1.15 3.4 2.835 4.272 5.232a1 1 0 1 1-1.88.684c-.683-1.879-2.042-3.26-3.516-4.262-1.474-1.002-3.008-1.584-3.935-1.875-.735-.231-.801-.948-.76-1.233.04-.284.307-.972 1.095-.972H18Z"/></g></svg>
